X:222
T:If You're Ever In Oklahoma
C:Front Porch String Band
N:mandolin: Larry Lynch - Transcribed by Philippe Colleu
R:bluegrass
L:1/8
Q:1/4=240
M:4/4
K:C
"128 bpm""G"_b/g/e gb eg b/g/e | g_b eg b/g/e gb | "Bb"eg _b/g/e gb eg | _b/g/e gb eg b/g/e | 
"C"_b/g/e b/g/e b/g/e dg | ed ^cd Bd AB | "G"AG ^FG EG DE | DB, G,B, DB, G,B, | 
"G"G,A, B,G, A,B, CA, | B,C DB, CD EC | "Bb"DE FD EF GE | FG AF GA _BG | "C"A_B cA Bc ^cB | 
c^c dd dd dd | "G"^cd cd =c_B Gc | _BG FD G4 | 


